X: 45
T:Dutch Skipper. WCa.45
M:C
Q:180
C:"Wm Calvert"
S:Wm. Calvert MS, 1812, Leyburn, Yorks.
R:reel
O:England
A:North Yorkshire
Z:vmp.Chris Partington, May 2003
K:G
DGBG dGBG|DGBG EAA2|DGBG dBeg|dcBA G>GG2:|!
d>g g2dgbg|agbg eaa2|dgg2dgbg|agbg egg2|!
d/g/ g3 dgbg|agbg eaa2|g<be<a d<gB<g|dcBA G<GG2||
